src/assets/Arrow - Right 2.svg

<svg width="24" height="25" viewBox="0 0 24 25" fill="none" xmlns="http://www.w3.org/2000/svg">
<path d="M8.2459 20.2589C7.94784 19.9667 7.92074 19.5095 8.16461 19.1873L8.2459 19.095L14.9734 12.5L8.2459 5.90503C7.94784 5.61283 7.92074 5.15558 8.16461 4.83338L8.2459 4.74106C8.54396 4.44887 9.01037 4.4223 9.33904 4.66137L9.43321 4.74106L16.7541 11.918C17.0522 12.2102 17.0793 12.6675 16.8354 12.9897L16.7541 13.082L9.43321 20.2589C9.10534 20.5804 8.57376 20.5804 8.2459 20.2589Z" fill="#F08F00"/>
</svg>

<svg xmlns="http://www.w3.org/2000/svg" width="24" height="25" fill="none"><path fill="#F08F00" d="M8.246 20.259a.81.81 0 0 1-.081-1.072l.08-.092 6.728-6.595-6.727-6.595a.81.81 0 0 1-.081-1.072l.08-.092a.85.85 0 0 1 1.094-.08l.094.08 7.321 7.177c.298.292.325.75.081 1.072l-.08.092-7.322 7.177a.85.85 0 0 1-1.187 0"/></svg>
